X:156
T:Love in a Hurry. JJo8.156
B:J.Johnson Choice Collection Vol 8 1758
Z:vmp.Simon Wilson 2013 www.village-music-project.org.uk
M:6/8
L:1/8
Q:3/8=100
K:Am
|:aAB cBA|eEEE2E|^F^GA GAB|AA,A,A,2A,|
B,CD CDE|FED fed|cBA E^F^G|AA,A,A,3:|
|:aef gfe|f[aA][gG] [fF][eE][dD]|gde fed|e[gG][fF] [eE][dD][cC]|
fcd edc|BcA ^GEe|aed cBA|E^F^GA3:|
